;Generated with Cura_SteamEngine 15.01
; Default start code
G28 ; Home extruder
G1 Z15 F100
M107 ; Turn off fan
G90 ; Absolute positioning
M82 ; Extruder in absolute mode
M190 S50
; Activate all used extruder
M104 T0 S210
G92 E0 ; Reset extruder position
; Wait for all used extruders to reach temperature
M109 T0 S210
;Layer count: 15
;LAYER:0
M107
G0 F9000 X50.857 Y27.357 Z0.300
G0 X51.357 Y27.357
;TYPE:SKIRT
G1 F1800 X51.357 Y26.857 E0.02495
G1 X51.857 Y26.857 E0.04989
G1 X51.857 Y26.357 E0.07484
G1 X52.357 Y26.357 E0.09978
G1 X52.357 Y25.857 E0.12473
G1 X53.398 Y25.857 E0.17666
G1 X53.406 Y25.357 E0.20161
G1 X55.857 Y25.357 E0.32389
G1 X55.857 Y24.357 E0.37378
G1 X56.357 Y24.357 E0.39873
G1 X56.357 Y23.357 E0.44862
G1 X57.357 Y23.357 E0.49851
G1 X57.357 Y22.857 E0.52345
G1 X58.357 Y22.857 E0.57334
G1 X58.357 Y22.357 E0.59829
G1 X61.175 Y22.357 E0.73888
G1 X61.236 Y22.326 E0.74229
G1 X62.426 Y22.329 E0.80166
G1 X62.504 Y22.328 E0.80555
G1 X62.925 Y22.329 E0.82656
G1 X63.004 Y22.328 E0.83050
G1 X63.425 Y22.329 E0.85150
G1 X63.504 Y22.328 E0.85544
G1 X63.925 Y22.329 E0.87645
G1 X64.004 Y22.328 E0.88039
G1 X64.425 Y22.329 E0.90139
G1 X64.504 Y22.328 E0.90533
G1 X64.925 Y22.329 E0.92634
G1 X65.004 Y22.328 E0.93028
G1 X65.422 Y22.329 E0.95113
G1 X66.203 Y22.302 E0.99012
G1 X66.313 Y22.357 E0.99626
G1 X68.175 Y22.357 E1.08915
G1 X68.236 Y22.326 E1.09257
G1 X69.426 Y22.329 E1.15194
G1 X69.504 Y22.328 E1.15583
G1 X69.925 Y22.329 E1.17683
G1 X70.004 Y22.328 E1.18077
G1 X70.425 Y22.329 E1.20178
G1 X70.504 Y22.328 E1.20572
G1 X70.925 Y22.329 E1.22672
G1 X71.004 Y22.328 E1.23066
G1 X71.425 Y22.329 E1.25167
G1 X71.504 Y22.328 E1.25561
G1 X71.925 Y22.329 E1.27661
G1 X72.004 Y22.328 E1.28055
G1 X72.425 Y22.329 E1.30156
G1 X72.504 Y22.328 E1.30550
G1 X72.921 Y22.329 E1.32630
G1 X73.715 Y22.301 E1.36594
G1 X73.825 Y22.357 E1.37210
G1 X76.643 Y22.357 E1.51269
G1 X76.643 Y22.857 E1.53764
G1 X77.143 Y22.857 E1.56258
G1 X77.143 Y23.328 E1.58608
G1 X77.425 Y23.329 E1.60015
G1 X77.504 Y23.328 E1.60409
G1 X77.921 Y23.329 E1.62489
G1 X78.715 Y23.301 E1.66453
G1 X78.825 Y23.357 E1.67069
G1 X81.643 Y23.357 E1.81128
G1 X81.643 Y23.857 E1.83623
G1 X82.643 Y23.857 E1.88612
G1 X82.643 Y24.357 E1.91106
G1 X84.143 Y24.357 E1.98590
G1 X84.143 Y24.857 E2.01084
G1 X84.643 Y24.857 E2.03579
G1 X84.643 Y25.357 E2.06073
G1 X85.643 Y25.357 E2.11062
G1 X85.643 Y25.857 E2.13557
G1 X86.143 Y25.857 E2.16051
G1 X86.143 Y27.357 E2.23535
G1 X86.643 Y27.357 E2.26029
G1 X86.643 Y30.175 E2.40088
G1 X86.674 Y30.236 E2.40430
G1 X86.671 Y31.415 E2.46312
G1 X86.672 Y31.504 E2.46756
G1 X86.671 Y31.915 E2.48806
G1 X86.672 Y32.004 E2.49250
G1 X86.671 Y32.415 E2.51301
G1 X86.672 Y32.504 E2.51745
G1 X86.671 Y32.921 E2.53825
G1 X86.699 Y33.715 E2.57789
G1 X86.643 Y33.825 E2.58405
G1 X86.643 Y36.643 E2.72464
G1 X86.137 Y36.643 E2.74988
G1 X86.135 Y37.571 E2.79618
G1 X85.643 Y37.582 E2.82073
G1 X85.643 Y38.643 E2.87367
G1 X84.576 Y38.643 E2.92690
G1 X84.563 Y39.143 E2.95185
G1 X84.143 Y39.143 E2.97281
G1 X84.143 Y39.643 E2.99775
G1 X83.143 Y39.643 E3.04764
G1 X83.143 Y41.643 E3.14742
G1 X82.643 Y41.643 E3.17237
G1 X82.643 Y42.643 E3.22226
G1 X82.143 Y42.643 E3.24720
G1 X82.143 Y43.357 E3.28283
G1 X82.643 Y43.357 E3.30777
G1 X82.643 Y44.357 E3.35766
G1 X83.143 Y44.357 E3.38261
G1 X83.143 Y45.857 E3.45744
G1 X84.143 Y45.857 E3.50733
G1 X84.143 Y46.357 E3.53228
G1 X85.143 Y46.357 E3.58217
G1 X85.143 Y46.857 E3.60711
G1 X85.643 Y46.857 E3.63206
G1 X85.643 Y47.857 E3.68195
G1 X86.143 Y47.857 E3.70689
G1 X86.143 Y48.857 E3.75678
G1 X86.643 Y48.857 E3.78173
G1 X86.643 Y49.357 E3.80667
G1 X87.143 Y49.357 E3.83162
G1 X87.143 Y52.175 E3.97221
G1 X87.174 Y52.236 E3.97562
G1 X87.171 Y53.415 E4.03444
G1 X87.172 Y53.504 E4.03888
G1 X87.171 Y53.915 E4.05939
G1 X87.172 Y54.004 E4.06383
G1 X87.171 Y54.415 E4.08433
G1 X87.172 Y54.504 E4.08877
G1 X87.171 Y54.915 E4.10928
G1 X87.172 Y55.004 E4.11372
G1 X87.171 Y55.415 E4.13422
G1 X87.172 Y55.504 E4.13867
G1 X87.171 Y55.915 E4.15917
G1 X87.172 Y56.004 E4.16361
G1 X87.171 Y56.415 E4.18412
G1 X87.172 Y56.504 E4.18856
G1 X87.171 Y56.921 E4.20936
G1 X87.199 Y57.715 E4.24900
G1 X87.143 Y57.825 E4.25516
G1 X87.143 Y60.643 E4.39575
G1 X86.643 Y60.643 E4.42069
G1 X86.643 Y61.143 E4.44564
G1 X86.172 Y61.143 E4.46913
G1 X86.171 Y61.415 E4.48271
G1 X86.172 Y61.504 E4.48715
G1 X86.171 Y61.915 E4.50765
G1 X86.172 Y62.004 E4.51209
G1 X86.171 Y62.415 E4.53260
G1 X86.172 Y62.504 E4.53704
G1 X86.171 Y62.915 E4.55754
G1 X86.172 Y63.004 E4.56198
G1 X86.171 Y63.421 E4.58279
G1 X86.199 Y64.215 E4.62242
G1 X86.143 Y64.325 E4.62858
G1 X86.143 Y67.143 E4.76917
G1 X85.643 Y67.143 E4.79412
G1 X85.643 Y67.643 E4.81906
G1 X85.136 Y67.643 E4.84436
G1 X85.135 Y68.071 E4.86571
G1 X84.577 Y68.084 E4.89356
G1 X84.563 Y68.643 E4.92145
G1 X84.143 Y68.643 E4.94241
G1 X84.143 Y69.143 E4.96735
G1 X83.643 Y69.143 E4.99230
G1 X83.643 Y69.643 E5.01724
G1 X82.643 Y69.643 E5.06713
G1 X82.643 Y71.643 E5.16691
G1 X82.143 Y71.643 E5.19186
G1 X82.143 Y72.643 E5.24175
G1 X81.143 Y72.643 E5.29164
G1 X81.143 Y73.143 E5.31658
G1 X80.643 Y73.143 E5.34153
G1 X80.643 Y73.643 E5.36647
G1 X79.143 Y73.643 E5.44131
G1 X79.143 Y74.143 E5.46625
G1 X76.325 Y74.143 E5.60685
G1 X76.264 Y74.174 E5.61026
G1 X75.074 Y74.171 E5.66963
G1 X74.996 Y74.172 E5.67352
G1 X74.575 Y74.171 E5.69452
G1 X74.496 Y74.172 E5.69847
G1 X74.075 Y74.171 E5.71947
G1 X73.996 Y74.172 E5.72341
G1 X73.575 Y74.171 E5.74442
G1 X73.496 Y74.172 E5.74836
G1 X73.079 Y74.171 E5.76916
G1 X72.285 Y74.199 E5.80880
G1 X72.175 Y74.143 E5.81496
G1 X70.143 Y74.143 E5.91633
G1 X70.143 Y74.643 E5.94128
G1 X68.596 Y74.643 E6.01846
G1 X68.587 Y75.143 E6.04341
G1 X65.825 Y75.143 E6.18120
G1 X65.764 Y75.174 E6.18462
G1 X64.574 Y75.171 E6.24399
G1 X64.496 Y75.172 E6.24788
G1 X64.075 Y75.171 E6.26888
G1 X63.996 Y75.172 E6.27283
G1 X63.575 Y75.171 E6.29383
G1 X63.496 Y75.172 E6.29777
G1 X63.075 Y75.171 E6.31877
G1 X62.996 Y75.172 E6.32272
G1 X62.579 Y75.171 E6.34352
G1 X61.785 Y75.199 E6.38316
G1 X61.675 Y75.143 E6.38932
G1 X58.857 Y75.143 E6.52991
G1 X58.857 Y74.643 E6.55485
G1 X57.357 Y74.643 E6.62969
G1 X57.357 Y74.143 E6.65463
G1 X56.357 Y74.143 E6.70452
G1 X56.357 Y72.643 E6.77936
G1 X54.357 Y72.643 E6.87914
G1 X54.357 Y72.143 E6.90408
G1 X52.857 Y72.143 E6.97892
G1 X52.857 Y71.643 E7.00386
G1 X51.357 Y71.643 E7.07870
G1 X51.357 Y70.602 E7.13063
G1 X50.857 Y70.594 E7.15558
G1 X50.857 Y68.143 E7.27786
G1 X50.357 Y68.143 E7.30281
G1 X50.357 Y67.637 E7.32805
G1 X49.382 Y67.635 E7.37670
G1 X49.378 Y67.143 E7.40124
G1 X48.357 Y67.143 E7.45218
G1 X48.357 Y66.643 E7.47713
G1 X47.857 Y66.643 E7.50207
G1 X47.857 Y65.643 E7.55196
G1 X47.357 Y65.643 E7.57691
G1 X47.357 Y64.576 E7.63014
G1 X46.857 Y64.563 E7.65509
G1 X46.857 Y61.825 E7.79169
G1 X46.826 Y61.764 E7.79511
G1 X46.829 Y60.585 E7.85393
G1 X46.828 Y60.496 E7.85837
G1 X46.829 Y60.085 E7.87887
G1 X46.828 Y59.996 E7.88331
G1 X46.829 Y59.585 E7.90382
G1 X46.828 Y59.496 E7.90826
G1 X46.829 Y59.078 E7.92911
G1 X46.802 Y58.297 E7.96810
G1 X46.858 Y58.185 E7.97435
G1 X46.865 Y55.429 E8.11184
G1 X47.357 Y55.418 E8.13640
G1 X47.357 Y53.857 E8.21428
G1 X47.857 Y53.857 E8.23922
G1 X47.857 Y52.857 E8.28911
G1 X48.357 Y52.857 E8.31406
G1 X48.357 Y51.857 E8.36395
G1 X48.857 Y51.857 E8.38889
G1 X48.857 Y51.357 E8.41384
G1 X49.357 Y51.357 E8.43878
G1 X49.357 Y48.857 E8.56351
G1 X49.864 Y48.857 E8.58880
G1 X49.865 Y48.405 E8.61135
G1 X50.404 Y48.397 E8.63825
G1 X50.413 Y47.857 E8.66519
G1 X50.857 Y47.857 E8.68734
G1 X50.857 Y47.357 E8.71229
G1 X51.357 Y47.357 E8.73723
G1 X51.357 Y46.857 E8.76218
G1 X53.922 Y46.857 E8.89014
G1 X53.917 Y46.643 E8.90082
G1 X52.857 Y46.643 E8.95371
G1 X52.857 Y45.576 E9.00694
G1 X52.357 Y45.563 E9.03189
G1 X52.357 Y44.102 E9.10478
G1 X51.857 Y44.094 E9.12973
G1 X51.857 Y41.324 E9.26793
G1 X51.826 Y41.264 E9.27130
G1 X51.829 Y40.085 E9.33012
G1 X51.828 Y39.996 E9.33456
G1 X51.829 Y39.585 E9.35506
G1 X51.828 Y39.496 E9.35950
G1 X51.829 Y39.143 E9.37712
G1 X51.357 Y39.143 E9.40066
G1 X51.357 Y38.102 E9.45260
G1 X50.857 Y38.094 E9.47755
G1 X50.857 Y37.143 E9.52499
G1 X50.357 Y37.143 E9.54994
G1 X50.357 Y34.325 E9.69053
G1 X50.326 Y34.264 E9.69394
G1 X50.329 Y33.085 E9.75276
G1 X50.328 Y32.996 E9.75720
G1 X50.329 Y32.585 E9.77771
G1 X50.328 Y32.496 E9.78215
G1 X50.329 Y32.078 E9.80300
G1 X50.302 Y31.297 E9.84199
G1 X50.358 Y31.185 E9.84824
G1 X50.365 Y28.373 E9.98853
G1 X50.857 Y28.371 E10.01308
G1 X50.857 Y27.357 E10.06366
G1 X51.357 Y27.357 E10.08861
G1 F2400 E6.08861
G0 F9000 X54.966 Y30.966
;TYPE:WALL-INNER
G1 F2400 E10.08861
G1 F1800 X55.133 Y30.633 E10.10720
G1 X55.466 Y30.466 E10.12578
G1 X55.633 Y30.133 E10.14437
G1 X55.966 Y29.966 E10.16295
G1 X56.132 Y29.634 E10.18147
G1 X56.146 Y29.627 E10.18225
G1 X56.659 Y29.624 E10.20785
G1 X56.965 Y29.452 E10.22536
G1 X57.131 Y29.134 E10.24326
G1 X57.143 Y29.128 E10.24392
G1 X57.476 Y29.129 E10.26054
G1 X57.538 Y29.128 E10.26363
G1 X57.976 Y29.129 E10.28548
G1 X58.038 Y29.128 E10.28858
G1 X58.476 Y29.129 E10.31043
G1 X58.538 Y29.128 E10.31352
G1 X58.981 Y29.129 E10.33562
G1 X59.145 Y29.123 E10.34381
G1 X59.470 Y28.970 E10.36173
G1 X59.628 Y28.636 E10.38017
G1 X59.629 Y28.143 E10.40476
G1 X59.634 Y28.133 E10.40532
G1 X59.973 Y27.963 E10.42424
G1 X60.128 Y27.636 E10.44229
G1 X60.133 Y27.133 E10.46739
G1 X60.143 Y27.128 E10.46795
G1 X60.481 Y27.129 E10.48481
G1 X60.645 Y27.123 E10.49300
G1 X60.963 Y26.973 E10.51054
G1 X61.133 Y26.634 E10.52946
G1 X61.143 Y26.628 E10.53004
G1 X61.481 Y26.629 E10.54691
G1 X61.645 Y26.623 E10.55509
G1 X61.963 Y26.473 E10.57263
G1 X62.133 Y26.134 E10.59155
G1 X62.143 Y26.128 E10.59214
G1 X62.476 Y26.129 E10.60875
G1 X62.538 Y26.128 E10.61184
G1 X62.976 Y26.129 E10.63370
G1 X63.038 Y26.128 E10.63679
G1 X63.476 Y26.129 E10.65864
G1 X63.538 Y26.128 E10.66173
G1 X63.976 Y26.129 E10.68359
G1 X64.038 Y26.128 E10.68668
G1 X64.476 Y26.129 E10.70853
G1 X64.538 Y26.128 E10.71163
G1 X64.976 Y26.129 E10.73348
G1 X65.038 Y26.128 E10.73657
G1 X65.367 Y26.132 E10.75299
G1 X65.542 Y26.463 E10.77167
G1 X65.866 Y26.630 E10.78985
G1 X66.036 Y26.966 E10.80864
G1 X66.357 Y27.126 E10.82653
G1 X66.975 Y27.129 E10.85736
G1 X67.038 Y27.128 E10.86051
G1 X67.481 Y27.129 E10.88261
G1 X67.645 Y27.123 E10.89080
G1 X67.963 Y26.973 E10.90834
G1 X68.133 Y26.634 E10.92726
G1 X68.143 Y26.628 E10.92784
G1 X68.481 Y26.629 E10.94470
G1 X68.645 Y26.623 E10.95289
G1 X68.963 Y26.473 E10.97043
G1 X69.133 Y26.134 E10.98935
G1 X69.143 Y26.128 E10.98993
G1 X69.476 Y26.129 E11.00655
G1 X69.538 Y26.128 E11.00964
G1 X69.976 Y26.129 E11.03149
G1 X70.038 Y26.128 E11.03459
G1 X70.476 Y26.129 E11.05644
G1 X70.538 Y26.128 E11.05953
G1 X70.976 Y26.129 E11.08138
G1 X71.038 Y26.128 E11.08448
G1 X71.476 Y26.129 E11.10633
G1 X71.538 Y26.128 E11.10942
G1 X71.976 Y26.129 E11.13128
G1 X72.038 Y26.128 E11.13437
G1 X72.476 Y26.129 E11.15622
G1 X72.538 Y26.128 E11.15931
G1 X72.857 Y26.129 E11.17523
G1 X72.868 Y26.134 E11.17583
G1 X73.034 Y26.466 E11.19435
G1 X73.367 Y26.633 E11.21294
G1 X73.537 Y26.973 E11.23190
G1 X73.864 Y27.128 E11.24996
G1 X74.476 Y27.129 E11.28049
G1 X74.538 Y27.128 E11.28358
G1 X74.976 Y27.129 E11.30543
G1 X75.038 Y27.128 E11.30853
G1 X75.476 Y27.129 E11.33038
G1 X75.538 Y27.128 E11.33347
G1 X75.976 Y27.129 E11.35532
G1 X76.038 Y27.128 E11.35842
G1 X76.476 Y27.129 E11.38027
G1 X76.538 Y27.128 E11.38336
G1 X76.976 Y27.129 E11.40522
G1 X77.038 Y27.128 E11.40831
G1 X77.476 Y27.129 E11.43016
G1 X77.538 Y27.128 E11.43326
G1 X77.857 Y27.129 E11.44917
G1 X77.867 Y27.134 E11.44973
G1 X78.037 Y27.473 E11.46865
G1 X78.364 Y27.628 E11.48670
G1 X78.857 Y27.629 E11.51130
G1 X78.867 Y27.634 E11.51186
G1 X79.037 Y27.973 E11.53078
G1 X79.364 Y28.128 E11.54883
G1 X79.976 Y28.129 E11.57936
G1 X80.038 Y28.128 E11.58246
G1 X80.357 Y28.129 E11.59837
G1 X80.368 Y28.134 E11.59897
G1 X80.534 Y28.466 E11.61749
G1 X80.867 Y28.633 E11.63608
G1 X81.037 Y28.973 E11.65504
G1 X81.364 Y29.128 E11.67310
G1 X81.857 Y29.129 E11.69769
G1 X81.868 Y29.134 E11.69830
G1 X82.034 Y29.466 E11.71682
G1 X82.366 Y29.632 E11.73533
G1 X82.372 Y29.643 E11.73596
G1 X82.371 Y29.976 E11.75257
G1 X82.372 Y30.027 E11.75512
G1 X82.371 Y30.481 E11.77777
G1 X82.377 Y30.645 E11.78595
G1 X82.527 Y30.963 E11.80350
G1 X82.866 Y31.133 E11.82242
G1 X82.872 Y31.143 E11.82300
G1 X82.871 Y31.476 E11.83961
G1 X82.872 Y31.527 E11.84216
G1 X82.871 Y31.976 E11.86456
G1 X82.872 Y32.027 E11.86710
G1 X82.871 Y32.476 E11.88950
G1 X82.872 Y32.527 E11.89205
G1 X82.871 Y32.857 E11.90851
G1 X82.866 Y32.867 E11.90907
G1 X82.527 Y33.037 E11.92799
G1 X82.372 Y33.364 E11.94604
G1 X82.371 Y33.860 E11.97079
G1 X82.366 Y33.870 E11.97135
G1 X82.043 Y34.039 E11.98953
G1 X81.879 Y34.346 E12.00690
G1 X81.873 Y34.855 E12.03230
G1 X81.867 Y34.867 E12.03296
G1 X81.853 Y34.873 E12.03372
G1 X81.347 Y34.878 E12.05897
G1 X81.038 Y35.044 E12.07647
G1 X80.872 Y35.364 E12.09445
G1 X80.534 Y35.534 E12.11333
G1 X80.368 Y35.866 E12.13185
G1 X80.357 Y35.872 E12.13247
G1 X80.019 Y35.871 E12.14934
G1 X79.855 Y35.877 E12.15752
G1 X79.530 Y36.030 E12.17545
G1 X79.372 Y36.364 E12.19388
G1 X79.371 Y36.976 E12.22441
G1 X79.372 Y37.027 E12.22696
G1 X79.371 Y37.476 E12.24936
G1 X79.372 Y37.527 E12.25190
G1 X79.371 Y37.857 E12.26837
G1 X79.366 Y37.867 E12.26892
G1 X79.027 Y38.037 E12.28784
G1 X78.872 Y38.364 E12.30590
G1 X78.871 Y38.857 E12.33049
G1 X78.866 Y38.867 E12.33105
G1 X78.527 Y39.037 E12.34997
G1 X78.372 Y39.364 E12.36803
G1 X78.367 Y39.867 E12.39312
G1 X78.357 Y39.872 E12.39368
G1 X78.019 Y39.871 E12.41054
G1 X77.855 Y39.877 E12.41873
G1 X77.537 Y40.027 E12.43627
G1 X77.367 Y40.367 E12.45524
G1 X77.034 Y40.534 E12.47382
G1 X76.868 Y40.866 E12.49234
G1 X76.857 Y40.872 E12.49297
G1 X76.519 Y40.871 E12.50983
G1 X76.355 Y40.877 E12.51802
G1 X76.037 Y41.027 E12.53556
G1 X75.867 Y41.367 E12.55452
G1 X75.534 Y41.534 E12.57311
G1 X75.367 Y41.867 E12.59169
G1 X75.027 Y42.037 E12.61066
G1 X74.872 Y42.364 E12.62871
G1 X74.871 Y42.976 E12.65925
G1 X74.872 Y43.027 E12.66179
G1 X74.871 Y43.476 E12.68419
G1 X74.872 Y43.527 E12.68674
G1 X74.871 Y43.981 E12.70939
G1 X74.877 Y44.145 E12.71757
G1 X75.030 Y44.470 E12.73550
G1 X75.364 Y44.628 E12.75393
G1 X75.868 Y44.633 E12.77908
G1 X76.042 Y44.966 E12.79782
G1 X76.355 Y45.122 E12.81527
G1 X76.973 Y45.129 E12.84610
G1 X77.037 Y45.128 E12.84930
G1 X77.357 Y45.129 E12.86526
G1 X77.368 Y45.134 E12.86586
G1 X77.534 Y45.466 E12.88438
G1 X77.867 Y45.633 E12.90297
G1 X78.034 Y45.966 E12.92155
G1 X78.366 Y46.132 E12.94007
G1 X78.372 Y46.143 E12.94070
G1 X78.371 Y46.481 E12.95756
G1 X78.377 Y46.645 E12.96575
G1 X78.527 Y46.963 E12.98329
G1 X78.866 Y47.133 E13.00221
G1 X78.872 Y47.143 E13.00279
G1 X78.871 Y47.481 E13.01965
G1 X78.877 Y47.645 E13.02784
G1 X79.027 Y47.963 E13.04538
G1 X79.366 Y48.133 E13.06430
G1 X79.372 Y48.143 E13.06488
G1 X79.371 Y48.476 E13.08150
G1 X79.372 Y48.527 E13.08404
G1 X79.371 Y48.981 E13.10669
G1 X79.377 Y49.145 E13.11488
G1 X79.530 Y49.470 E13.13280
G1 X79.864 Y49.628 E13.15124
G1 X80.357 Y49.629 E13.17583
G1 X80.367 Y49.634 E13.17639
G1 X80.537 Y49.973 E13.19531
G1 X80.864 Y50.128 E13.21336
G1 X81.357 Y50.129 E13.23796
G1 X81.368 Y50.134 E13.23856
G1 X81.534 Y50.466 E13.25708
G1 X81.866 Y50.632 E13.27560
G1 X81.872 Y50.643 E13.27622
G1 X81.871 Y50.981 E13.29309
G1 X81.877 Y51.145 E13.30128
G1 X82.027 Y51.463 E13.31882
G1 X82.366 Y51.633 E13.33774
G1 X82.372 Y51.643 E13.33832
G1 X82.371 Y51.981 E13.35518
G1 X82.377 Y52.145 E13.36337
G1 X82.527 Y52.463 E13.38091
G1 X82.867 Y52.633 E13.39988
G1 X83.034 Y52.966 E13.41846
G1 X83.366 Y53.132 E13.43698
G1 X83.372 Y53.143 E13.43760
G1 X83.371 Y53.476 E13.45422
G1 X83.372 Y53.527 E13.45676
G1 X83.371 Y53.976 E13.47916
G1 X83.372 Y54.027 E13.48171
G1 X83.371 Y54.476 E13.50411
G1 X83.372 Y54.527 E13.50665
G1 X83.371 Y54.976 E13.52906
G1 X83.372 Y55.027 E13.53160
G1 X83.371 Y55.476 E13.55400
G1 X83.372 Y55.527 E13.55655
G1 X83.371 Y55.976 E13.57895
G1 X83.372 Y56.027 E13.58149
G1 X83.371 Y56.476 E13.60389
G1 X83.372 Y56.527 E13.60644
G1 X83.371 Y56.857 E13.62290
G1 X83.366 Y56.868 E13.62350
G1 X83.034 Y57.034 E13.64202
G1 X82.867 Y57.367 E13.66061
