;Generated with Cura_SteamEngine 15.01
; Default start code
G28 ; Home extruder
G1 Z15 F100
M107 ; Turn off fan
G90 ; Absolute positioning
M82 ; Extruder in absolute mode
M190 S50
; Activate all used extruder
M104 T0 S210
G92 E0 ; Reset extruder position
; Wait for all used extruders to reach temperature
M109 T0 S210
;Layer count: 25
;LAYER:0
M107
G0 F9000 X36.800 Y21.800 Z0.300
;TYPE:SKIRT
G1 F1800 X63.200 Y21.800 E1.31710
G1 X63.200 Y51.800 E2.81381
G1 X66.800 Y51.800 E2.99341
G1 X66.800 Y21.800 E4.49012
G1 X113.200 Y21.800 E6.80502
G1 X113.200 Y48.200 E8.12212
G1 X93.200 Y48.200 E9.11993
G1 X93.200 Y51.800 E9.29953
G1 X123.200 Y51.800 E10.79624
G1 X123.200 Y108.200 E13.61005
G1 X96.800 Y108.200 E14.92715
G1 X96.800 Y78.200 E16.42385
G1 X93.200 Y78.200 E16.60346
G1 X93.200 Y108.200 E18.10017
G1 X36.800 Y108.200 E20.91397
G1 X36.800 Y81.800 E22.23107
G1 X66.800 Y81.800 E23.72778
G1 X66.800 Y78.200 E23.90739
G1 X36.800 Y78.200 E25.40409
G1 X36.800 Y21.800 E28.21790
G1 F2400 E24.21790
G0 F9000 X40.600 Y25.600
;TYPE:WALL-INNER
G1 F2400 E28.21790
G1 F1800 X59.400 Y25.600 E29.15583
G1 X59.400 Y55.600 E30.65254
G1 X70.600 Y55.600 E31.21131
G1 X70.600 Y25.600 E32.70802
G1 X109.400 Y25.600 E34.64376
G1 X109.400 Y44.400 E35.58169
G1 X89.400 Y44.400 E36.57950
G1 X89.400 Y55.600 E37.13827
G1 X119.400 Y55.600 E38.63497
G1 X119.400 Y104.400 E41.06961
G1 X100.600 Y104.400 E42.00755
G1 X100.600 Y74.400 E43.50426
G1 X89.400 Y74.400 E44.06303
G1 X89.400 Y104.400 E45.55973
G1 X40.600 Y104.400 E47.99437
G1 X40.600 Y85.600 E48.93231
G1 X70.600 Y85.600 E50.42902
G1 X70.600 Y74.400 E50.98779
G1 X40.600 Y74.400 E52.48449
G1 X40.600 Y25.600 E54.91913
G0 F9000 X40.200 Y25.200
;TYPE:WALL-OUTER
G1 F1800 X59.800 Y25.200 E55.89698
G1 X59.800 Y55.200 E57.39369
G1 X70.200 Y55.200 E57.91255
G1 X70.200 Y25.200 E59.40925
G1 X109.800 Y25.200 E61.38491
G1 X109.800 Y44.800 E62.36275
G1 X89.800 Y44.800 E63.36056
G1 X89.800 Y55.200 E63.87942
G1 X119.800 Y55.200 E65.37612
G1 X119.800 Y104.800 E67.85068
G1 X100.200 Y104.800 E68.82852
G1 X100.200 Y74.800 E70.32523
G1 X89.800 Y74.800 E70.84409
G1 X89.800 Y104.800 E72.34079
G1 X40.200 Y104.800 E74.81535
G1 X40.200 Y85.200 E75.79320
G1 X70.200 Y85.200 E77.28990
G1 X70.200 Y74.800 E77.80876
G1 X40.200 Y74.800 E79.30547
G1 X40.200 Y25.200 E81.78002
G0 F9000 X40.739 Y25.748
;TYPE:SKIN
G1 F1800 X59.259 Y44.269 E83.08674
G0 F9000 X59.259 Y44.834
G1 F1800 X40.739 Y26.314 E84.39343
G0 F9000 X40.739 Y26.879
G1 F1800 X59.259 Y45.400 E85.70015
G0 F9000 X59.259 Y45.966
G1 F1800 X40.739 Y27.445 E87.00687
G0 F9000 X40.739 Y28.011
G1 F1800 X59.259 Y46.531 E88.31356
G0 F9000 X59.259 Y47.097
G1 F1800 X40.739 Y28.577 E89.62024
G0 F9000 X40.739 Y29.142
G1 F1800 X59.259 Y47.663 E90.92696
G0 F9000 X59.259 Y48.228
G1 F1800 X40.739 Y29.708 E92.23365
G0 F9000 X40.739 Y30.274
G1 F1800 X59.259 Y48.794 E93.54034
G0 F9000 X59.259 Y49.360
G1 F1800 X40.739 Y30.839 E94.84706
G0 F9000 X40.739 Y31.405
G1 F1800 X59.259 Y49.925 E96.15374
G0 F9000 X59.259 Y50.491
G1 F1800 X40.739 Y31.971 E97.46043
G0 F9000 X40.739 Y32.536
G1 F1800 X59.259 Y51.057 E98.76715
G0 F9000 X59.259 Y51.623
G1 F1800 X40.739 Y33.102 E100.07387
G0 F9000 X40.739 Y33.668
G1 F1800 X59.259 Y52.188 E101.38056
G0 F9000 X59.259 Y52.754
G1 F1800 X40.739 Y34.233 E102.68728
G0 F9000 X40.739 Y34.799
G1 F1800 X59.259 Y53.320 E103.99400
G0 F9000 X59.259 Y53.885
G1 F1800 X40.739 Y35.365 E105.30069
G0 F9000 X40.739 Y35.930
G1 F1800 X59.259 Y54.451 E106.60741
G0 F9000 X59.259 Y55.017
G1 F1800 X40.739 Y36.496 E107.91413
G0 F9000 X40.739 Y37.062
G1 F1800 X59.259 Y55.582 E109.22081
G0 F9000 X59.416 Y55.739
G1 F1800 X89.260 Y85.583 E111.32647
G0 F9000 X89.260 Y86.148
G1 F1800 X40.739 Y37.627 E114.74989
G0 F9000 X40.739 Y38.193
G1 F1800 X89.260 Y86.714 E118.17331
G0 F9000 X89.260 Y87.280
G1 F1800 X40.739 Y38.759 E121.59673
G0 F9000 X40.739 Y39.325
G1 F1800 X89.260 Y87.845 E125.02011
G0 F9000 X89.260 Y88.411
G1 F1800 X40.739 Y39.890 E128.44353
G0 F9000 X41.296 Y25.740
G1 F1800 X59.259 Y43.703 E129.71091
G0 F9000 X59.259 Y43.137
G1 F1800 X41.862 Y25.740 E130.93837
G0 F9000 X42.427 Y25.740
G1 F1800 X59.259 Y42.572 E132.12596
G0 F9000 X59.259 Y42.006
G1 F1800 X42.993 Y25.740 E133.27361
G0 F9000 X43.559 Y25.740
G1 F1800 X59.259 Y41.440 E134.38133
G0 F9000 X59.259 Y40.875
G1 F1800 X44.124 Y25.740 E135.44919
G0 F9000 X44.690 Y25.740
G1 F1800 X59.259 Y40.309 E136.47711
G0 F9000 X59.459 Y55.541
G0 X59.982 Y55.739
G1 F1800 X89.260 Y85.017 E138.54283
G0 F9000 X89.260 Y84.451
G1 F1800 X60.548 Y55.739 E140.56861
G0 F9000 X61.113 Y55.739
G1 F1800 X89.260 Y83.886 E142.55454
G0 F9000 X89.260 Y83.320
G1 F1800 X61.679 Y55.739 E144.50053
G0 F9000 X62.245 Y55.739
G1 F1800 X89.260 Y82.754 E146.40658
G0 F9000 X89.260 Y82.189
G1 F1800 X62.810 Y55.739 E148.27277
G0 F9000 X63.376 Y55.739
G1 F1800 X89.260 Y81.623 E150.09903
G0 F9000 X89.260 Y81.057
G1 F1800 X63.942 Y55.739 E151.88535
G0 F9000 X64.507 Y55.739
G1 F1800 X89.260 Y80.492 E153.63181
G0 F9000 X89.260 Y88.977
G1 F1800 X40.739 Y40.456 E157.05522
G0 F9000 X40.739 Y41.022
G1 F1800 X89.260 Y89.543 E160.47864
G0 F9000 X89.260 Y90.108
G1 F1800 X40.739 Y41.587 E163.90206
G0 F9000 X40.739 Y42.153
G1 F1800 X89.260 Y90.674 E167.32548
G0 F9000 X89.260 Y91.240
G1 F1800 X40.739 Y42.719 E170.74890
G0 F9000 X40.739 Y43.284
G1 F1800 X89.260 Y91.805 E174.17232
G0 F9000 X89.260 Y92.371
G1 F1800 X40.739 Y43.850 E177.59574
G0 F9000 X40.739 Y44.416
G1 F1800 X70.582 Y74.259 E179.70132
G0 F9000 X70.739 Y74.416
G1 F1800 X89.260 Y92.937 E181.00808
G0 F9000 X89.260 Y93.502
G1 F1800 X70.739 Y74.982 E182.31480
G0 F9000 X70.739 Y75.547
G1 F1800 X89.260 Y94.068 E183.62156
G0 F9000 X89.260 Y94.634
G1 F1800 X70.739 Y76.113 E184.92831
G0 F9000 X70.739 Y76.679
G1 F1800 X89.260 Y95.199 E186.23503
G0 F9000 X89.260 Y95.765
G1 F1800 X70.739 Y77.245 E187.54175
G0 F9000 X70.739 Y77.810
G1 F1800 X89.260 Y96.331 E188.84851
G0 F9000 X89.260 Y96.896
G1 F1800 X70.739 Y78.376 E190.15523
G0 F9000 X70.739 Y78.942
G1 F1800 X89.260 Y97.462 E191.46195
G0 F9000 X89.260 Y98.028
G1 F1800 X70.739 Y79.507 E192.76871
G0 F9000 X70.541 Y74.459
G0 X70.017 Y74.259
G1 F1800 X40.739 Y44.981 E194.83443
G0 F9000 X40.739 Y45.547
G1 F1800 X69.451 Y74.259 E196.86022
G0 F9000 X68.885 Y74.259
G1 F1800 X40.739 Y46.113 E198.84607
G0 F9000 X40.739 Y46.678
G1 F1800 X68.319 Y74.259 E200.79202
G0 F9000 X67.754 Y74.259
G1 F1800 X40.739 Y47.244 E202.69808
G0 F9000 X40.739 Y47.810
G1 F1800 X67.188 Y74.259 E204.56420
G0 F9000 X66.622 Y74.259
G1 F1800 X40.739 Y48.376 E206.39038
G0 F9000 X40.739 Y48.941
G1 F1800 X66.057 Y74.259 E208.17671
G0 F9000 X65.491 Y74.259
G1 F1800 X40.739 Y49.507 E209.92309
G0 F9000 X40.739 Y50.073
G1 F1800 X64.925 Y74.259 E211.62955
G0 F9000 X64.360 Y74.259
G1 F1800 X40.739 Y50.638 E213.29613
G0 F9000 X40.739 Y51.204
G1 F1800 X63.794 Y74.259 E214.92279
G0 F9000 X63.228 Y74.259
G1 F1800 X40.739 Y51.770 E216.50951
G0 F9000 X40.739 Y52.335
G1 F1800 X62.663 Y74.259 E218.05637
G0 F9000 X62.097 Y74.259
G1 F1800 X40.739 Y52.901 E219.56329
G0 F9000 X40.739 Y53.467
G1 F1800 X61.531 Y74.259 E221.03028
G0 F9000 X60.966 Y74.259
G1 F1800 X40.739 Y54.032 E222.45740
G0 F9000 X40.739 Y54.598
G1 F1800 X60.400 Y74.259 E223.84459
G0 F9000 X59.834 Y74.259
G1 F1800 X40.739 Y55.164 E225.19185
G0 F9000 X40.739 Y55.729
G1 F1800 X59.268 Y74.259 E226.49920
G0 F9000 X58.703 Y74.259
G1 F1800 X40.739 Y56.295 E227.76666
G0 F9000 X40.739 Y56.861
G1 F1800 X58.137 Y74.259 E228.99418
G0 F9000 X57.571 Y74.259
G1 F1800 X40.739 Y57.426 E230.18181
G0 F9000 X40.739 Y57.992
G1 F1800 X57.006 Y74.259 E231.32953
G0 F9000 X56.440 Y74.259
G1 F1800 X40.739 Y58.558 E232.43732
G0 F9000 X40.739 Y59.124
G1 F1800 X55.874 Y74.259 E233.50518
G0 F9000 X55.309 Y74.259
G1 F1800 X40.739 Y59.689 E234.53317
G0 F9000 X40.739 Y60.255
G1 F1800 X54.743 Y74.259 E235.52123
G0 F9000 X54.177 Y74.259
G1 F1800 X40.739 Y60.821 E236.46935
G0 F9000 X40.739 Y61.386
G1 F1800 X53.612 Y74.259 E237.37761
G0 F9000 X53.046 Y74.259
G1 F1800 X40.739 Y61.952 E238.24594
G0 F9000 X40.739 Y62.518
G1 F1800 X52.480 Y74.259 E239.07433
G0 F9000 X51.915 Y74.259
G1 F1800 X40.739 Y63.083 E239.86285
G0 F9000 X40.739 Y63.649
G1 F1800 X51.349 Y74.259 E240.61145
G0 F9000 X50.783 Y74.259
G1 F1800 X40.739 Y64.215 E241.32010
G0 F9000 X40.739 Y64.780
G1 F1800 X50.218 Y74.259 E241.98890
G0 F9000 X49.652 Y74.259
G1 F1800 X40.739 Y65.346 E242.61776
G0 F9000 X40.739 Y65.912
G1 F1800 X49.086 Y74.259 E243.20669
G0 F9000 X48.520 Y74.259
G1 F1800 X40.739 Y66.477 E243.75571
G0 F9000 X40.739 Y67.043
G1 F1800 X47.955 Y74.259 E244.26484
G0 F9000 X47.389 Y74.259
G1 F1800 X40.739 Y67.609 E244.73403
G0 F9000 X40.739 Y68.174
G1 F1800 X46.823 Y74.259 E245.16333
G0 F9000 X46.258 Y74.259
G1 F1800 X40.739 Y68.740 E245.55272
G0 F9000 X40.739 Y69.306
G1 F1800 X45.692 Y74.259 E245.90218
G0 F9000 X45.126 Y74.259
G1 F1800 X40.739 Y69.872 E246.21171
G0 F9000 X40.739 Y70.437
G1 F1800 X44.561 Y74.259 E246.48137
G0 F9000 X43.995 Y74.259
G1 F1800 X40.739 Y71.003 E246.71110
G0 F9000 X40.739 Y71.569
G1 F1800 X43.429 Y74.259 E246.90090
G0 F9000 X42.864 Y74.259
G1 F1800 X40.739 Y72.134 E247.05083
G0 F9000 X40.739 Y72.700
G1 F1800 X42.298 Y74.259 E247.16082
G0 F9000 X41.732 Y74.259
G1 F1800 X40.739 Y73.266 E247.23088
G0 F9000 X40.739 Y73.831
G1 F1800 X41.167 Y74.259 E247.26108
G0 F9000 X70.541 Y74.459
G0 X70.541 Y85.541
G0 X41.333 Y85.739
G1 F1800 X59.853 Y104.259 E248.56777
G0 F9000 X59.287 Y104.259
G1 F1800 X40.767 Y85.739 E249.87445
G0 F9000 X40.739 Y86.277
G1 F1800 X58.721 Y104.259 E251.14318
G0 F9000 X58.155 Y104.259
G1 F1800 X40.739 Y86.843 E252.37197
G0 F9000 X40.739 Y87.409
G1 F1800 X57.590 Y104.259 E253.56087
G0 F9000 X57.024 Y104.259
G1 F1800 X40.739 Y87.974 E254.70986
G0 F9000 X40.739 Y88.540
G1 F1800 X56.458 Y104.259 E255.81892
G0 F9000 X55.893 Y104.259
G1 F1800 X40.739 Y89.106 E256.88808
G0 F9000 X40.739 Y89.671
G1 F1800 X55.327 Y104.259 E257.91735
G0 F9000 X54.761 Y104.259
G1 F1800 X40.739 Y90.237 E258.90667
G0 F9000 X40.739 Y90.803
G1 F1800 X54.196 Y104.259 E259.85610
G0 F9000 X53.630 Y104.259
G1 F1800 X40.739 Y91.368 E260.76563
G0 F9000 X40.739 Y91.934
G1 F1800 X53.064 Y104.259 E261.63523
G0 F9000 X52.499 Y104.259
G1 F1800 X40.739 Y92.500 E262.46492
G0 F9000 X40.739 Y93.065
G1 F1800 X51.933 Y104.259 E263.25472
G0 F9000 X51.367 Y104.259
G1 F1800 X40.739 Y93.631 E264.00458
G0 F9000 X40.739 Y94.197
G1 F1800 X50.802 Y104.259 E264.71455
G0 F9000 X50.236 Y104.259
G1 F1800 X40.739 Y94.762 E265.38461
G0 F9000 X40.739 Y95.328
G1 F1800 X49.670 Y104.259 E266.01474
G0 F9000 X49.105 Y104.259
G1 F1800 X40.739 Y95.894 E266.60497
G0 F9000 X40.739 Y96.459
G1 F1800 X48.539 Y104.259 E267.15531
G0 F9000 X47.973 Y104.259
G1 F1800 X40.739 Y97.025 E267.66570
G0 F9000 X40.739 Y97.591
G1 F1800 X47.407 Y104.259 E268.13617
G0 F9000 X46.842 Y104.259
G1 F1800 X40.739 Y98.157 E268.56673
G0 F9000 X40.739 Y98.722
G1 F1800 X46.276 Y104.259 E268.95740
G0 F9000 X45.710 Y104.259
G1 F1800 X40.739 Y99.288 E269.30813
G0 F9000 X40.739 Y99.854
G1 F1800 X45.145 Y104.259 E269.61896
G0 F9000 X44.579 Y104.259
G1 F1800 X40.739 Y100.419 E269.88989
G0 F9000 X40.739 Y100.985
G1 F1800 X44.013 Y104.259 E270.12089
G0 F9000 X43.448 Y104.259
G1 F1800 X40.739 Y101.551 E270.31199
G0 F9000 X40.739 Y102.116
G1 F1800 X42.882 Y104.259 E270.46319
G0 F9000 X42.316 Y104.259
G1 F1800 X40.739 Y102.682 E270.57446
G0 F9000 X40.739 Y103.248
G1 F1800 X41.751 Y104.259 E270.64582
G0 F9000 X41.185 Y104.259
G1 F1800 X40.739 Y103.813 E270.67729
G0 F9000 X41.898 Y85.739
G1 F1800 X60.418 Y104.259 E271.98398
G0 F9000 X60.984 Y104.259
G1 F1800 X42.464 Y85.739 E273.29066
G0 F9000 X43.030 Y85.739
G1 F1800 X61.550 Y104.259 E274.59735
G0 F9000 X62.115 Y104.259
G1 F1800 X43.595 Y85.739 E275.90403
G0 F9000 X44.161 Y85.739
G1 F1800 X62.681 Y104.259 E277.21072
G0 F9000 X63.247 Y104.259
G1 F1800 X44.727 Y85.739 E278.51741
G0 F9000 X45.293 Y85.739
G1 F1800 X63.812 Y104.259 E279.82406
G0 F9000 X64.378 Y104.259
G1 F1800 X45.858 Y85.739 E281.13074
G0 F9000 X46.424 Y85.739
G1 F1800 X64.944 Y104.259 E282.43743
G0 F9000 X65.509 Y104.259
G1 F1800 X46.990 Y85.739 E283.74408
G0 F9000 X47.555 Y85.739
G1 F1800 X66.075 Y104.259 E285.05077
G0 F9000 X66.641 Y104.259
G1 F1800 X48.121 Y85.739 E286.35745
G0 F9000 X48.687 Y85.739
G1 F1800 X67.206 Y104.259 E287.66410
G0 F9000 X67.772 Y104.259
G1 F1800 X49.252 Y85.739 E288.97079
G0 F9000 X49.818 Y85.739
G1 F1800 X68.338 Y104.259 E290.27747
G0 F9000 X68.904 Y104.259
G1 F1800 X50.384 Y85.739 E291.58416
G0 F9000 X50.949 Y85.739
G1 F1800 X69.469 Y104.259 E292.89085
G0 F9000 X70.035 Y104.259
G1 F1800 X51.515 Y85.739 E294.19753
G0 F9000 X52.081 Y85.739
G1 F1800 X70.601 Y104.259 E295.50422
G0 F9000 X71.166 Y104.259
G1 F1800 X52.646 Y85.739 E296.81090
G0 F9000 X53.212 Y85.739
G1 F1800 X71.732 Y104.259 E298.11759
G0 F9000 X72.298 Y104.259
G1 F1800 X53.778 Y85.739 E299.42428
G0 F9000 X54.343 Y85.739
G1 F1800 X72.863 Y104.259 E300.73096
G0 F9000 X73.429 Y104.259
G1 F1800 X54.909 Y85.739 E302.03765
G0 F9000 X55.475 Y85.739
G1 F1800 X73.995 Y104.259 E303.34433
G0 F9000 X74.560 Y104.259
G1 F1800 X56.041 Y85.739 E304.65099
G0 F9000 X56.606 Y85.739
G1 F1800 X75.126 Y104.259 E305.95767
G0 F9000 X75.692 Y104.259
G1 F1800 X57.172 Y85.739 E307.26436
G0 F9000 X57.738 Y85.739
G1 F1800 X76.257 Y104.259 E308.57101
G0 F9000 X76.823 Y104.259
G1 F1800 X58.303 Y85.739 E309.87769
G0 F9000 X58.869 Y85.739
G1 F1800 X77.389 Y104.259 E311.18438
G0 F9000 X77.954 Y104.259
G1 F1800 X59.435 Y85.739 E312.49103
G0 F9000 X60.000 Y85.739
G1 F1800 X78.520 Y104.259 E313.79772
G0 F9000 X79.086 Y104.259
G1 F1800 X60.566 Y85.739 E315.10440
G0 F9000 X61.132 Y85.739
G1 F1800 X79.652 Y104.259 E316.41109
G0 F9000 X80.217 Y104.259
G1 F1800 X61.697 Y85.739 E317.71778
G0 F9000 X62.263 Y85.739
G1 F1800 X80.783 Y104.259 E319.02446
G0 F9000 X81.349 Y104.259
G1 F1800 X62.829 Y85.739 E320.33115
G0 F9000 X63.394 Y85.739
G1 F1800 X81.914 Y104.259 E321.63783
G0 F9000 X82.480 Y104.259
G1 F1800 X63.960 Y85.739 E322.94452
G0 F9000 X64.526 Y85.739
G1 F1800 X83.046 Y104.259 E324.25121
G0 F9000 X83.611 Y104.259
G1 F1800 X65.092 Y85.739 E325.55786
G0 F9000 X65.657 Y85.739
G1 F1800 X84.177 Y104.259 E326.86454
G0 F9000 X84.743 Y104.259
G1 F1800 X66.223 Y85.739 E328.17123
G0 F9000 X66.789 Y85.739
G1 F1800 X85.308 Y104.259 E329.47788
G0 F9000 X85.874 Y104.259
G1 F1800 X67.354 Y85.739 E330.78456
G0 F9000 X67.920 Y85.739
G1 F1800 X86.440 Y104.259 E332.09125
G0 F9000 X87.005 Y104.259
G1 F1800 X68.486 Y85.739 E333.39790
G0 F9000 X69.051 Y85.739
G1 F1800 X87.571 Y104.259 E334.70459
G0 F9000 X88.137 Y104.259
G1 F1800 X69.617 Y85.739 E336.01127
G0 F9000 X70.183 Y85.739
G1 F1800 X88.703 Y104.259 E337.31796
G0 F9000 X89.260 Y104.250
G1 F1800 X70.739 Y85.730 E338.62468
G0 F9000 X70.739 Y85.164
G1 F1800 X89.260 Y103.685 E339.93144
G0 F9000 X89.260 Y103.119
G1 F1800 X70.739 Y84.598 E341.23819
G0 F9000 X70.739 Y84.033
G1 F1800 X89.260 Y102.553 E342.54492
G0 F9000 X89.260 Y101.988
G1 F1800 X70.739 Y83.467 E343.85167
G0 F9000 X70.739 Y82.901
G1 F1800 X89.260 Y101.422 E345.15843
G0 F9000 X89.260 Y100.856
G1 F1800 X70.739 Y82.336 E346.46515
G0 F9000 X70.739 Y81.770
G1 F1800 X89.260 Y100.291 E347.77191
G0 F9000 X89.260 Y99.725
G1 F1800 X70.739 Y81.204 E349.07866
G0 F9000 X70.739 Y80.639
G1 F1800 X89.260 Y99.159 E350.38538
G0 F9000 X89.260 Y98.594
G1 F1800 X70.739 Y80.073 E351.69214
G0 F9000 X89.260 Y79.926
G1 F1800 X65.073 Y55.739 E353.39866
G0 F9000 X65.639 Y55.739
G1 F1800 X89.260 Y79.360 E355.06525
G0 F9000 X89.260 Y78.795
G1 F1800 X66.204 Y55.739 E356.69198
G0 F9000 X66.770 Y55.739
G1 F1800 X89.260 Y78.229 E358.27877
G0 F9000 X89.260 Y77.663
G1 F1800 X67.336 Y55.739 E359.82563
G0 F9000 X67.902 Y55.739
G1 F1800 X89.260 Y77.097 E361.33255
G0 F9000 X89.260 Y76.532
G1 F1800 X68.467 Y55.739 E362.79961
G0 F9000 X69.033 Y55.739
G1 F1800 X89.260 Y75.966 E364.22673
G0 F9000 X89.260 Y75.400
G1 F1800 X69.599 Y55.739 E365.61392
G0 F9000 X70.164 Y55.739
G1 F1800 X89.260 Y74.835 E366.96125
G0 F9000 X89.260 Y74.269
G1 F1800 X70.730 Y55.739 E368.26864
G0 F9000 X70.738 Y55.182
G1 F1800 X89.815 Y74.259 E369.61462
G0 F9000 X90.381 Y74.259
