;Generated with Cura_SteamEngine 15.01
; Default start code
G28 ; Home extruder
G1 Z15 F100
M107 ; Turn off fan
G90 ; Absolute positioning
M82 ; Extruder in absolute mode
M190 S50
; Activate all used extruder
M104 T0 S210
G92 E0 ; Reset extruder position
; Wait for all used extruders to reach temperature
M109 T0 S210
;Layer count: 300
;LAYER:0
M107
G0 F9000 X46.800 Y6.800 Z0.300
;TYPE:SKIRT
G1 F1800 X113.200 Y6.800 E3.31271
G1 X113.200 Y26.200 E4.28058
G1 X133.800 Y26.200 E5.30832
G1 X133.800 Y43.800 E6.18639
G1 X113.200 Y43.800 E7.21412
G1 X113.200 Y63.200 E8.18199
G1 X46.800 Y63.200 E11.49470
G1 X46.800 Y6.800 E14.30851
G1 F2400 E10.30851
G0 F9000 X50.600 Y10.600
;TYPE:WALL-INNER
G1 F2400 E14.30851
G1 F1800 X109.400 Y10.600 E17.24205
G1 X109.400 Y59.400 E19.67670
G1 X50.600 Y59.400 E22.61024
G1 X50.600 Y10.600 E25.04488
G0 F9000 X50.200 Y10.200
;TYPE:WALL-OUTER
G1 F1800 X109.800 Y10.200 E28.01834
G1 X109.800 Y59.800 E30.49289
G1 X50.200 Y59.800 E33.46635
G1 X50.200 Y10.200 E35.94090
G0 F9000 X50.739 Y10.858
;TYPE:SKIN
G1 F1800 X99.139 Y59.259 E39.35582
G0 F9000 X98.574 Y59.259
G1 F1800 X50.739 Y11.424 E42.73084
G0 F9000 X50.739 Y11.989
G1 F1800 X98.008 Y59.259 E46.06595
G0 F9000 X97.442 Y59.259
G1 F1800 X50.739 Y12.555 E49.36114
G0 F9000 X50.739 Y13.121
G1 F1800 X96.877 Y59.259 E52.61642
G0 F9000 X96.311 Y59.259
G1 F1800 X50.739 Y13.686 E55.83181
G0 F9000 X50.739 Y14.252
G1 F1800 X95.745 Y59.259 E59.00726
G0 F9000 X95.180 Y59.259
G1 F1800 X50.739 Y14.818 E62.14281
G0 F9000 X50.739 Y15.383
G1 F1800 X94.614 Y59.259 E65.23847
G0 F9000 X94.048 Y59.259
G1 F1800 X50.739 Y15.949 E68.29419
G0 F9000 X50.739 Y16.515
G1 F1800 X93.483 Y59.259 E71.31001
G0 F9000 X92.917 Y59.259
G1 F1800 X50.739 Y17.080 E74.28593
G0 F9000 X50.739 Y17.646
G1 F1800 X92.351 Y59.259 E77.22191
G0 F9000 X91.785 Y59.259
G1 F1800 X50.739 Y18.212 E80.11797
G0 F9000 X50.739 Y18.777
G1 F1800 X91.220 Y59.259 E82.97416
G0 F9000 X90.654 Y59.259
G1 F1800 X50.739 Y19.343 E85.79041
G0 F9000 X50.739 Y19.909
G1 F1800 X90.088 Y59.259 E88.56673
G0 F9000 X89.523 Y59.259
G1 F1800 X50.739 Y20.474 E91.30319
G0 F9000 X50.739 Y21.040
G1 F1800 X88.957 Y59.259 E93.99971
G0 F9000 X88.391 Y59.259
G1 F1800 X50.739 Y21.606 E96.65629
G0 F9000 X50.739 Y22.172
G1 F1800 X87.826 Y59.259 E99.27298
G0 F9000 X87.260 Y59.259
G1 F1800 X50.739 Y22.737 E101.84977
G0 F9000 X50.739 Y23.303
G1 F1800 X86.694 Y59.259 E104.38663
G0 F9000 X86.129 Y59.259
G1 F1800 X50.739 Y23.869 E106.88358
G0 F9000 X50.739 Y24.434
G1 F1800 X85.563 Y59.259 E109.34064
G0 F9000 X84.997 Y59.259
G1 F1800 X50.739 Y25.000 E111.75776
G0 F9000 X50.739 Y25.566
G1 F1800 X84.432 Y59.259 E114.13498
G0 F9000 X83.866 Y59.259
G1 F1800 X50.739 Y26.131 E116.47231
G0 F9000 X50.739 Y26.697
G1 F1800 X83.300 Y59.259 E118.76970
G0 F9000 X82.735 Y59.259
G1 F1800 X50.739 Y27.263 E121.02719
G0 F9000 X50.739 Y27.828
G1 F1800 X82.169 Y59.259 E123.24478
G0 F9000 X81.603 Y59.259
G1 F1800 X50.739 Y28.394 E125.42244
G0 F9000 X50.739 Y28.960
G1 F1800 X81.037 Y59.259 E127.56016
G0 F9000 X80.472 Y59.259
G1 F1800 X50.739 Y29.525 E129.65802
G0 F9000 X50.739 Y30.091
G1 F1800 X79.906 Y59.259 E131.71594
G0 F9000 X79.340 Y59.259
G1 F1800 X50.739 Y30.657 E133.73393
G0 F9000 X50.739 Y31.223
G1 F1800 X78.775 Y59.259 E135.71202
G0 F9000 X78.209 Y59.259
G1 F1800 X50.739 Y31.788 E137.65022
G0 F9000 X50.739 Y32.354
G1 F1800 X77.643 Y59.259 E139.54847
G0 F9000 X77.078 Y59.259
G1 F1800 X50.739 Y32.920 E141.40683
G0 F9000 X50.739 Y33.485
G1 F1800 X76.512 Y59.259 E143.22529
G0 F9000 X75.946 Y59.259
G1 F1800 X50.739 Y34.051 E145.00382
G0 F9000 X50.739 Y34.617
G1 F1800 X75.381 Y59.259 E146.74244
G0 F9000 X74.815 Y59.259
G1 F1800 X50.739 Y35.182 E148.44117
G0 F9000 X50.739 Y35.748
G1 F1800 X74.249 Y59.259 E150.09996
G0 F9000 X73.684 Y59.259
G1 F1800 X50.739 Y36.314 E151.71886
G0 F9000 X50.739 Y36.879
G1 F1800 X73.118 Y59.259 E153.29785
G0 F9000 X72.552 Y59.259
G1 F1800 X50.739 Y37.445 E154.83691
G0 F9000 X50.739 Y38.011
G1 F1800 X71.987 Y59.259 E156.33607
G0 F9000 X71.421 Y59.259
G1 F1800 X50.739 Y38.576 E157.79534
G0 F9000 X50.739 Y39.142
G1 F1800 X70.855 Y59.259 E159.21466
G0 F9000 X70.289 Y59.259
G1 F1800 X50.739 Y39.708 E160.59406
G0 F9000 X50.739 Y40.273
G1 F1800 X69.724 Y59.259 E161.93359
G0 F9000 X69.158 Y59.259
G1 F1800 X50.739 Y40.839 E163.23318
G0 F9000 X50.739 Y41.405
G1 F1800 X68.592 Y59.259 E164.49284
G0 F9000 X68.027 Y59.259
G1 F1800 X50.739 Y41.971 E165.71260
G0 F9000 X50.739 Y42.536
G1 F1800 X67.461 Y59.259 E166.89247
G0 F9000 X66.895 Y59.259
G1 F1800 X50.739 Y43.102 E168.03240
G0 F9000 X50.739 Y43.668
G1 F1800 X66.330 Y59.259 E169.13242
G0 F9000 X65.764 Y59.259
G1 F1800 X50.739 Y44.233 E170.19255
G0 F9000 X50.739 Y44.799
G1 F1800 X65.198 Y59.259 E171.21275
G0 F9000 X64.633 Y59.259
G1 F1800 X50.739 Y45.365 E172.19305
G0 F9000 X50.739 Y45.930
G1 F1800 X64.067 Y59.259 E173.13345
G0 F9000 X63.501 Y59.259
G1 F1800 X50.739 Y46.496 E174.03391
G0 F9000 X50.739 Y47.062
G1 F1800 X62.936 Y59.259 E174.89447
G0 F9000 X62.370 Y59.259
G1 F1800 X50.739 Y47.627 E175.71514
G0 F9000 X50.739 Y48.193
G1 F1800 X61.804 Y59.259 E176.49587
G0 F9000 X61.238 Y59.259
G1 F1800 X50.739 Y48.759 E177.23667
G0 F9000 X50.739 Y49.324
G1 F1800 X60.673 Y59.259 E177.93760
G0 F9000 X60.107 Y59.259
G1 F1800 X50.739 Y49.890 E178.59860
G0 F9000 X50.739 Y50.456
G1 F1800 X59.541 Y59.259 E179.21966
G0 F9000 X58.976 Y59.259
G1 F1800 X50.739 Y51.021 E179.80086
G0 F9000 X50.739 Y51.587
G1 F1800 X58.410 Y59.259 E180.34213
G0 F9000 X57.844 Y59.259
G1 F1800 X50.739 Y52.153 E180.84346
G0 F9000 X50.739 Y52.719
G1 F1800 X57.279 Y59.259 E181.30489
G0 F9000 X56.713 Y59.259
G1 F1800 X50.739 Y53.284 E181.72642
G0 F9000 X50.739 Y53.850
G1 F1800 X56.147 Y59.259 E182.10802
G0 F9000 X55.582 Y59.259
G1 F1800 X50.739 Y54.416 E182.44972
G0 F9000 X50.739 Y54.981
G1 F1800 X55.016 Y59.259 E182.75152
G0 F9000 X54.450 Y59.259
G1 F1800 X50.739 Y55.547 E183.01339
G0 F9000 X50.739 Y56.113
G1 F1800 X53.885 Y59.259 E183.23536
G0 F9000 X53.319 Y59.259
G1 F1800 X50.739 Y56.678 E183.41742
G0 F9000 X50.739 Y57.244
G1 F1800 X52.753 Y59.259 E183.55956
G0 F9000 X52.188 Y59.259
G1 F1800 X50.739 Y57.810 E183.66179
G0 F9000 X50.739 Y58.375
G1 F1800 X51.622 Y59.259 E183.72413
G0 F9000 X51.056 Y59.259
G1 F1800 X50.739 Y58.941 E183.74653
G0 F9000 X51.186 Y10.739
G1 F1800 X99.705 Y59.259 E187.16984
G0 F9000 X100.271 Y59.259
G1 F1800 X51.751 Y10.739 E190.59319
G0 F9000 X52.317 Y10.739
G1 F1800 X100.836 Y59.259 E194.01650
G0 F9000 X101.402 Y59.259
G1 F1800 X52.883 Y10.739 E197.43982
G0 F9000 X53.448 Y10.739
G1 F1800 X101.968 Y59.259 E200.86316
G0 F9000 X102.534 Y59.259
G1 F1800 X54.014 Y10.739 E204.28651
G0 F9000 X54.580 Y10.739
G1 F1800 X103.099 Y59.259 E207.70983
G0 F9000 X103.665 Y59.259
G1 F1800 X55.145 Y10.739 E211.13317
G0 F9000 X55.711 Y10.739
G1 F1800 X104.231 Y59.259 E214.55652
G0 F9000 X104.796 Y59.259
G1 F1800 X56.277 Y10.739 E217.97983
G0 F9000 X56.842 Y10.739
G1 F1800 X105.362 Y59.259 E221.40318
G0 F9000 X105.928 Y59.259
G1 F1800 X57.408 Y10.739 E224.82653
G0 F9000 X57.974 Y10.739
G1 F1800 X106.493 Y59.259 E228.24984
G0 F9000 X107.059 Y59.259
G1 F1800 X58.539 Y10.739 E231.67319
G0 F9000 X59.105 Y10.739
G1 F1800 X107.625 Y59.259 E235.09654
G0 F9000 X108.190 Y59.259
G1 F1800 X59.671 Y10.739 E238.51985
G0 F9000 X60.237 Y10.739
G1 F1800 X108.756 Y59.259 E241.94316
G0 F9000 X109.259 Y59.196
G1 F1800 X60.802 Y10.739 E245.36207
G0 F9000 X61.368 Y10.739
G1 F1800 X109.259 Y58.630 E248.74104
G0 F9000 X109.259 Y58.064
G1 F1800 X61.934 Y10.739 E252.08007
G0 F9000 X62.499 Y10.739
G1 F1800 X109.259 Y57.499 E255.37924
G0 F9000 X109.259 Y56.933
G1 F1800 X63.065 Y10.739 E258.63848
G0 F9000 X63.631 Y10.739
G1 F1800 X109.259 Y56.367 E261.85778
G0 F9000 X109.259 Y55.802
G1 F1800 X64.196 Y10.739 E265.03722
G0 F9000 X64.762 Y10.739
G1 F1800 X109.259 Y55.236 E268.17672
G0 F9000 X109.259 Y54.670
G1 F1800 X65.328 Y10.739 E271.27629
G0 F9000 X65.893 Y10.739
G1 F1800 X109.259 Y54.104 E274.33596
G0 F9000 X109.259 Y53.539
G1 F1800 X66.459 Y10.739 E277.35573
G0 F9000 X67.025 Y10.739
G1 F1800 X109.259 Y52.973 E280.33557
G0 F9000 X109.259 Y52.407
G1 F1800 X67.590 Y10.739 E283.27551
G0 F9000 X68.156 Y10.739
G1 F1800 X109.259 Y51.842 E286.17555
G0 F9000 X109.259 Y51.276
G1 F1800 X68.722 Y10.739 E289.03565
G0 F9000 X69.287 Y10.739
G1 F1800 X109.259 Y50.710 E291.85585
G0 F9000 X109.259 Y50.145
G1 F1800 X69.853 Y10.739 E294.63616
G0 F9000 X70.419 Y10.739
G1 F1800 X109.259 Y49.579 E297.37653
G0 F9000 X109.259 Y49.013
G1 F1800 X70.985 Y10.739 E300.07697
G0 F9000 X71.550 Y10.739
G1 F1800 X109.259 Y48.448 E302.73754
G0 F9000 X109.259 Y47.882
G1 F1800 X72.116 Y10.739 E305.35818
G0 F9000 X72.682 Y10.739
G1 F1800 X109.259 Y47.316 E307.93889
G0 F9000 X109.259 Y46.751
G1 F1800 X73.247 Y10.739 E310.47973
G0 F9000 X73.813 Y10.739
G1 F1800 X109.259 Y46.185 E312.98064
G0 F9000 X109.259 Y45.619
G1 F1800 X74.379 Y10.739 E315.44161
G0 F9000 X74.944 Y10.739
G1 F1800 X109.259 Y45.054 E317.86272
G0 F9000 X109.259 Y44.488
G1 F1800 X75.510 Y10.739 E320.24389
G0 F9000 X76.076 Y10.739
G1 F1800 X109.259 Y43.922 E322.58513
G0 F9000 X109.259 Y43.356
G1 F1800 X76.641 Y10.739 E324.88647
G0 F9000 X77.207 Y10.739
G1 F1800 X109.259 Y42.791 E327.14791
G0 F9000 X109.259 Y42.225
G1 F1800 X77.773 Y10.739 E329.36942
G0 F9000 X78.338 Y10.739
G1 F1800 X109.259 Y41.659 E331.55103
G0 F9000 X109.259 Y41.094
G1 F1800 X78.904 Y10.739 E333.69274
G0 F9000 X79.470 Y10.739
G1 F1800 X109.259 Y40.528 E335.79451
G0 F9000 X109.259 Y39.962
G1 F1800 X80.036 Y10.739 E337.85635
G0 F9000 X80.601 Y10.739
G1 F1800 X109.259 Y39.397 E339.87833
G0 F9000 X109.259 Y38.831
G1 F1800 X81.167 Y10.739 E341.86037
G0 F9000 X81.733 Y10.739
G1 F1800 X109.259 Y38.265 E343.80248
G0 F9000 X109.259 Y37.700
G1 F1800 X82.298 Y10.739 E345.70472
G0 F9000 X82.864 Y10.739
G1 F1800 X109.259 Y37.134 E347.56703
G0 F9000 X109.259 Y36.568
G1 F1800 X83.430 Y10.739 E349.38941
G0 F9000 X83.995 Y10.739
G1 F1800 X109.259 Y36.003 E351.17192
G0 F9000 X109.259 Y35.437
G1 F1800 X84.561 Y10.739 E352.91450
G0 F9000 X85.127 Y10.739
G1 F1800 X109.259 Y34.871 E354.61714
G0 F9000 X109.259 Y34.305
G1 F1800 X85.692 Y10.739 E356.27989
G0 F9000 X86.258 Y10.739
G1 F1800 X109.259 Y33.740 E357.90273
G0 F9000 X109.259 Y33.174
G1 F1800 X86.824 Y10.739 E359.48564
G0 F9000 X87.389 Y10.739
G1 F1800 X109.259 Y32.608 E361.02865
G0 F9000 X109.259 Y32.043
G1 F1800 X87.955 Y10.739 E362.53176
G0 F9000 X88.521 Y10.739
G1 F1800 X109.259 Y31.477 E363.99494
G0 F9000 X109.259 Y30.911
G1 F1800 X89.086 Y10.739 E365.41822
G0 F9000 X89.652 Y10.739
G1 F1800 X109.259 Y30.346 E366.80160
G0 F9000 X109.259 Y29.780
G1 F1800 X90.218 Y10.739 E368.14505
G0 F9000 X90.784 Y10.739
G1 F1800 X109.259 Y29.214 E369.44856
G0 F9000 X109.259 Y28.649
G1 F1800 X91.349 Y10.739 E370.71220
G0 F9000 X91.915 Y10.739
G1 F1800 X109.259 Y28.083 E371.93592
G0 F9000 X109.259 Y27.517
G1 F1800 X92.481 Y10.739 E373.11970
G0 F9000 X93.046 Y10.739
G1 F1800 X109.259 Y26.952 E374.26361
G0 F9000 X109.259 Y26.386
G1 F1800 X93.612 Y10.739 E375.36759
G0 F9000 X94.178 Y10.739
G1 F1800 X109.259 Y25.820 E376.43164
G0 F9000 X109.259 Y25.255
G1 F1800 X94.743 Y10.739 E377.45582
G0 F9000 X95.309 Y10.739
G1 F1800 X109.259 Y24.689 E378.44007
G0 F9000 X109.259 Y24.123
G1 F1800 X95.875 Y10.739 E379.38438
G0 F9000 X96.440 Y10.739
G1 F1800 X109.259 Y23.557 E380.28879
G0 F9000 X109.259 Y22.992
G1 F1800 X97.006 Y10.739 E381.15331
G0 F9000 X97.572 Y10.739
G1 F1800 X109.259 Y22.426 E381.97789
G0 F9000 X109.259 Y21.860
G1 F1800 X98.137 Y10.739 E382.76257
G0 F9000 X98.703 Y10.739
G1 F1800 X109.259 Y21.295 E383.50736
G0 F9000 X109.259 Y20.729
G1 F1800 X99.269 Y10.739 E384.21220
G0 F9000 X99.834 Y10.739
G1 F1800 X109.259 Y20.163 E384.87715
G0 F9000 X109.259 Y19.598
G1 F1800 X100.400 Y10.739 E385.50220
G0 F9000 X100.966 Y10.739
G1 F1800 X109.259 Y19.032 E386.08732
G0 F9000 X109.259 Y18.466
G1 F1800 X101.532 Y10.739 E386.63250
G0 F9000 X102.097 Y10.739
G1 F1800 X109.259 Y17.901 E387.13782
G0 F9000 X109.259 Y17.335
G1 F1800 X102.663 Y10.739 E387.60320
G0 F9000 X103.229 Y10.739
G1 F1800 X109.259 Y16.769 E388.02865
G0 F9000 X109.259 Y16.204
G1 F1800 X103.794 Y10.739 E388.41424
G0 F9000 X104.360 Y10.739
G1 F1800 X109.259 Y15.638 E388.75989
G0 F9000 X109.259 Y15.072
G1 F1800 X104.926 Y10.739 E389.06560
G0 F9000 X105.491 Y10.739
G1 F1800 X109.259 Y14.507 E389.33146
G0 F9000 X109.259 Y13.941
G1 F1800 X106.057 Y10.739 E389.55738
G0 F9000 X106.623 Y10.739
G1 F1800 X109.259 Y13.375 E389.74336
G0 F9000 X109.259 Y12.809
G1 F1800 X107.188 Y10.739 E389.88944
G0 F9000 X107.754 Y10.739
G1 F1800 X109.259 Y12.244 E389.99563
G0 F9000 X109.259 Y11.678
G1 F1800 X108.320 Y10.739 E390.06188
G0 F9000 X108.885 Y10.739
G1 F1800 X109.259 Y11.112 E390.08823
G1 F2400 E386.08823
G0 F9000 X110.700 Y29.400
;TYPE:SUPPORT
G1 F2400 E390.08823
G1 F1800 X130.600 Y29.400 E391.08105
G1 X130.600 Y40.600 E391.63982
G1 X110.700 Y40.600 E392.63263
G1 X110.700 Y29.400 E393.19141
G0 F9000 X114.638 Y29.500
G0 X114.638 Y29.340
G1 F1800 X114.638 Y40.660 E393.75616
G0 F9000 X114.638 Y40.500
G0 X119.970 Y40.500
G0 X119.970 Y40.660
G1 F1800 X119.970 Y29.340 E394.32092
G0 F9000 X119.970 Y29.500
G0 X110.800 Y34.658
G0 X110.639 Y34.658
G1 F1800 X130.659 Y34.658 E395.31972
G0 F9000 X130.500 Y34.658
G0 X130.590 Y29.500
G0 X130.634 Y29.340
G1 F1800 X130.634 Y40.660 E395.88448
G0 F9000 X130.590 Y40.500
G0 X125.302 Y40.500
G0 X125.302 Y40.660
G1 F1800 X125.302 Y29.340 E396.44924
G0 F9000 X125.302 Y29.500
G0 X130.500 Y39.990
G0 X130.659 Y39.990
G1 F1800 X110.639 Y39.990 E397.44804
;LAYER:1
M106 S63
G0 F9000 X109.500 Y39.990 Z0.500
G0 X109.400 Y59.400
;TYPE:WALL-INNER
G1 F2220 X50.600 Y59.400 E399.40373
G1 X50.600 Y10.600 E401.02683
G1 X109.400 Y10.600 E402.98252
G1 X109.400 Y59.400 E404.60562
G0 F9000 X109.800 Y59.800
;TYPE:WALL-OUTER
G1 F1980 X50.200 Y59.800 E406.58792
G1 X50.200 Y10.200 E408.23763
G1 X109.800 Y10.200 E410.21993
G1 X109.800 Y59.800 E411.86963
G0 F9000 X109.259 Y59.032
;TYPE:SKIN
G1 F1980 X109.031 Y59.259 E411.88033
G0 F9000 X108.465 Y59.259
G1 F1980 X109.259 Y58.466 E411.91766
G0 F9000 X109.259 Y57.900
G1 F1980 X107.900 Y59.259 E411.98158
G0 F9000 X107.334 Y59.259
G1 F1980 X109.259 Y57.335 E412.07210
G0 F9000 X109.259 Y56.769
G1 F1980 X106.768 Y59.259 E412.18925
G0 F9000 X106.203 Y59.259
G1 F1980 X109.259 Y56.203 E412.33299
G0 F9000 X109.259 Y55.637
G1 F1980 X105.637 Y59.259 E412.50336
G0 F9000 X105.071 Y59.259
G1 F1980 X109.259 Y55.072 E412.70033
G0 F9000 X109.259 Y54.506
G1 F1980 X104.506 Y59.259 E412.92389
G0 F9000 X103.940 Y59.259
G1 F1980 X109.259 Y53.940 E413.17408
G0 F9000 X109.259 Y53.375
G1 F1980 X103.374 Y59.259 E413.45087
G0 F9000 X102.809 Y59.259
G1 F1980 X109.259 Y52.809 E413.75426
G0 F9000 X109.259 Y52.243
G1 F1980 X102.243 Y59.259 E414.08427
G0 F9000 X101.677 Y59.259
G1 F1980 X109.259 Y51.678 E414.44088
G0 F9000 X109.259 Y51.112
G1 F1980 X101.112 Y59.259 E414.82409
G0 F9000 X100.546 Y59.259
G1 F1980 X109.259 Y50.546 E415.23393
G0 F9000 X109.259 Y49.981
G1 F1980 X99.980 Y59.259 E415.67036
G0 F9000 X99.414 Y59.259
G1 F1980 X109.259 Y49.415 E416.13341
G0 F9000 X109.259 Y48.849
G1 F1980 X98.849 Y59.259 E416.62307
G0 F9000 X98.283 Y59.259
G1 F1980 X109.259 Y48.284 E417.13932
G0 F9000 X109.259 Y47.718
G1 F1980 X97.717 Y59.259 E417.68220
G0 F9000 X97.152 Y59.259
G1 F1980 X109.259 Y47.152 E418.25167
G0 F9000 X109.259 Y46.587
G1 F1980 X96.586 Y59.259 E418.84775
G0 F9000 X96.020 Y59.259
G1 F1980 X109.259 Y46.021 E419.47045
G0 F9000 X109.259 Y45.455
G1 F1980 X95.455 Y59.259 E420.11975
G0 F9000 X94.889 Y59.259
G1 F1980 X109.259 Y44.889 E420.79567
G0 F9000 X109.259 Y44.324
G1 F1980 X94.323 Y59.259 E421.49819
G0 F9000 X93.758 Y59.259
G1 F1980 X109.259 Y43.758 E422.22731
G0 F9000 X109.259 Y43.192
G1 F1980 X93.192 Y59.259 E422.98305
G0 F9000 X92.626 Y59.259
G1 F1980 X109.259 Y42.627 E423.76539
G0 F9000 X109.259 Y42.061
G1 F1980 X92.061 Y59.259 E424.57433
G0 F9000 X91.495 Y59.259
G1 F1980 X109.259 Y41.495 E425.40990
G0 F9000 X109.259 Y40.930
G1 F1980 X90.929 Y59.259 E426.27206
G0 F9000 X90.364 Y59.259
G1 F1980 X109.259 Y40.364 E427.16082
G0 F9000 X109.259 Y39.798
